X:1
T:Title
%%score [ ( 1 2 ) ( 3 4 ) ]
L:1/8
Q:1/4=130
M:3/2
K:F
V:1 treble nm="Midi_74"
V:2 treble 
V:3 bass nm="Midi_69"
V:4 bass 
V:1
"^John Bacchus Dykes\n(1823-76)""^Edward Caswall \n(1814-78) and others""^Days and moments quickly flying""^St Sylvester (87. 87)" A3 A A2 A2 G2 A2 | %1
w: |
w: |
w: |
w: |
w: |
w: |
 B2 c2 A8 | A3 A A2 A2 A2 G2 | G12 || F3 F F2 F2 A2 c2 | (c2 B2) A8 | G3 G G2 G2 A2 G2 | F12 |] %8
w: ||||ly\- * *|||
w: |||* * * * * re-|mem\- * *|||
w: |||* * * * * re-|treat\- * *|||
w: ||||slum\- * *|||
w: ||||dream\- * *|||
w: |||* * * * * vic-|tor\- * *|||
V:2
 F3 F F2 F2 E2 F2 | (F2 E2) F8 | F3 F F2 F2 F2 F2 | E12 || F3 D C2 F2 F2 F2 | F4 F8 | %6
w: Days and mo- ments quick- ly|fly\- * *|blend the liv- ing with the||||
w: ~Je- sus, in- fin- ite Re-|deem\- * *|Ma- ker of this migh- ty||||
w: ~~As a sha- dow life is|fleet\- * *|As a va- pour, so it||||
w: Wise that we our days may|num\- * *|Strive and wres- tle with our||||
w: Je- sus, mer- ci- ful Re-|deem\- * *|Rouse dead souls to hear Thy||||
w: Soon be- fore the Judge all|glo\- * *|We with all the dead shall||||
 F3 F F2 F2 E2 E2 | F12 |] %8
w: ||
w: ||
w: ||
w: ||
w: ||
w: ||
V:3
 C3 C C2 A,2 B,2 A,2 | G,4 (A,4 C4) | D3 D D2 C2 =B,2 B,2 | (C4 G,4 B,4) || A,3 B, A,2 A,2 C2 _E2 | %5
w: |* ing *||dead: * *|Soon our bo- dies will be|
w: |* er, *||frame, * *|Teach, O teach us to *|
w: |* ing, *||flies; * *|For the by- gone years *|
w: |* ber, *||sin, * *|Stay not in our work, nor|
w: |* er, *||voice; * *|Wake, O wake each id- le|
w: |* rious *||stand; * *|Sa- viour, ov- er death *|
 D4 (C4 A,4) | =B,3 B, B,2 B,2 C2 _B,2 | A,12 |] %8
w: * ing *|Each with- in its nar- row|bed.|
w: * ber *|What we are, and whence we|came.|
w: * ing, *|Par- don grant, and make us|wise,|
w: * ber, *|Till Thy ho- ly rest we|win.|
w: * er *|Now to make th'e- ter- nal|choice.|
w: * ious, *|Place us then at Thy right|hand.|
V:4
 F,3 F, F,2 F,2 G,2 F,2 | C,4 F,8 | D,3 D, D,2 D,2 G,2 G,2 | C,12 || F,3 F, F,2 F,2 F,2 F,2 | %5
 B,,4 F,8 | G,3 G, G,2 D,2 C,2 C,2 | F,12 |] %8

